share-off-outline.svg

<svg fill="currentColor" viewBox="0 0 24 24"><path d="M22.1 21.5 2.4 1.7 1.1 3l7.8 7.8C5.4 12.9 3.7 16.4 3 20c2.3-3.3 5.6-4.9 10-5.1l1 1V19l1.6-1.6 5.2 5.3M8.3 13.8c.64-.58 1.35-1.09 2.1-1.5l.9.8m2.9-2.1-1.7-1.7L14 9V5l7 7-2.9 2.9-1.4-1.4 1.5-1.5L16 9.8v.9"/></svg>

<svg  viewBox="0 0 24 24" fill="currentColor"><path  d="M22.1 21.5L2.4 1.7L1.1 3L8.9 10.8C5.4 12.9 3.7 16.4 3 20C5.3 16.7 8.6 15.1 13 14.9L14 15.9V19L15.6 17.4L20.8 22.7M8.3 13.8C8.94 13.22 9.65 12.71 10.4 12.3L11.3 13.1M14.2 11L12.5 9.3L14 9V5L21 12L18.1 14.9L16.7 13.5L18.2 12L16 9.8V10.7"/></svg>
